X: 5488
T: Bunker Hill
R: reel
M: 4/4
K: Amixolydian
ge|:dBGB A2EA|(3Bcd ef ~g2fg|efed Bdcd|efge aege|
dBGB A2EA|(3Bcd ef ~g2fg|afgf edcd|efge aege:|
|:dg~g2 bg~g2|dggf gedg|ea~a2 c'a~a2|eaab aged|
cdef geaf|geaf g2fg|afge fdcd|1 efge a2 ge:|2 efge Aced||
|:cA~A2 cAeA|ceAc e2 dc|dB ~B2 dBfB|dfBd f2 ed|
cAAG EFGE|AGEF ~G2FG|AFGE FDGF|1 EFGE A3B:|2 EFGE A2 ge||

